X: 38964
T: Swaggering Jig, The
R: slip jig
M: 9/8
K: Gmajor
c|BAG EGG DGG|BAG EFG A2c|BAG EGG DGG|BAG EFD E2:|
|:c|Bdd ded dBG|cee efe e2f|gfe dcB AGA|BAG EFD E2:|

